svg/Pictogram/pictograms-aem-0104-no_smoking.svg

<?xml version="1.0" encoding="ISO-8859-1" standalone="yes"?>
<svg height="305.241" width="305.241">
  <metadata>
    <rdf:RDF xmlns:cc="http://web.resource.org/cc/" xmlns:dc="http://purl.org/dc/elements/1.1/" xmlns:rdf="http://www.w3.org/1999/02/22-rdf-syntax-ns#">
      <cc:Work rdf:about="">
        <dc:title></dc:title>
        <dc:description></dc:description>
        <dc:subject>
          <rdf:Bag>
            <rdf:li></rdf:li>
          </rdf:Bag>
        </dc:subject>
        <dc:publisher>
          <cc:Agent rdf:about="http://www.unece.org/trans/danger/publi/ghs/pictograms.html">
            <dc:title>Source: UNECE GHS of Classification and Labeling of Chemicals, Source: AEM Pictorial Database, Source: AEM Pictorial Database, Source: AEM Pictorial Database, Source: AEM Pictorial Database</dc:title>
          </cc:Agent>
        </dc:publisher>
        <dc:creator>
          <cc:Agent>
            <dc:title></dc:title>
          </cc:Agent>
        </dc:creator>
        <dc:rights>
          <cc:Agent>
            <dc:title></dc:title>
          </cc:Agent>
        </dc:rights>
        <dc:date></dc:date>
        <dc:format>image/svg+xml</dc:format>
        <dc:type rdf:resource="http://purl.org/dc/dcmitype/StillImage"/>
        <cc:license rdf:resource="http://en.wikipedia.org/wiki/Public_domain"/>
        <dc:language>en</dc:language>
      </cc:Work>
    </rdf:RDF>
  </metadata>
  <defs><marker id="ArrowEnd" markerHeight="3" markerUnits="strokeWidth" markerWidth="4" orient="auto" refX="0" refY="5" viewBox="0 0 10 10"><path d="M 0 0 L 10 5 L 0 10 z"/></marker><marker id="ArrowStart" markerHeight="3" markerUnits="strokeWidth" markerWidth="4" orient="auto" refX="10" refY="5" viewBox="0 0 10 10"><path d="M 10 0 L 0 5 L 10 10 z"/></marker> </defs>
  <g id="g2958" transform="matrix(1.3532768,0,0,1.3532781,-53.207834,-52.192858)">
    <path d="M 155.55 40.2294C 217.413 40.2294 267.87 90.6824 267.87 152.55C 267.87 214.417 217.413 264.87 155.55 264.87C 93.6829 264.87 43.2298 214.417 43.2298 152.55C 43.2298 90.6824 93.6829 40.2294 155.55 40.2294zM 213.893 224.671L 83.4251 94.1984C 70.4798 110.167 62.7024 130.479 62.7024 152.55C 62.7024 203.687 104.409 245.394 155.55 245.394C 177.62 245.394 197.929 237.617 213.893 224.671zM 97.1985 80.4254L 227.675 210.894C 240.62 194.932 248.393 174.624 248.393 152.55C 248.393 101.409 206.686 59.7024 155.55 59.7024C 133.472 59.7024 113.159 67.4754 97.1985 80.4254" style="stroke:none; fill-rule:evenodd; fill:#d90000"/>
    <path d="M 147.608 162.831L 75.4602 162.831L 75.4602 188.862L 173.792 188.862L 147.608 162.831" style="stroke:none; fill-rule:evenodd; fill:#000000"/>
    <path d="M 147.608 162.831L 75.4602 162.831L 75.4602 188.862L 173.792 188.862L 147.608 162.831z" style="stroke:#000000; stroke-width:0.216; fill:none"/>
    <path d="M 182.796 163.007L 206.464 187.339L 209.319 187.339L 209.319 162.975L 182.796 163.007" style="stroke:none; fill-rule:evenodd; fill:#000000"/>
    <path d="M 182.796 163.007L 206.464 187.339L 209.319 187.339L 209.319 162.975L 182.796 163.007z" style="stroke:#000000; stroke-width:0.216; fill:none"/>
    <path d="M 212.573 187.413L 222.749 187.413L 222.749 162.96L 212.573 162.96L 212.573 187.413z" style="stroke:none; fill-rule:evenodd; fill:#000000"/>
    <path d="M 212.573 187.413L 222.749 187.413L 222.749 162.96L 212.573 162.96L 212.573 187.413z" style="stroke:#000000; stroke-width:0.216; fill:none"/>
    <path d="M 226.241 187.413L 232.968 187.413L 232.968 162.96L 226.241 162.96L 226.241 187.413z" style="stroke:none; fill-rule:evenodd; fill:#000000"/>
    <path d="M 226.241 187.413L 232.968 187.413L 232.968 162.96L 226.241 162.96L 226.241 187.413z" style="stroke:#000000; stroke-width:0.216; fill:none"/>
    <path d="M 222.85 157.21C 220.132 157.21 217.409 157.21 214.682 157.21C 214.682 151.69 214.682 146.171 214.682 140.655C 214.663 137.011 211.55 136.257 209.913 136.46C 198.015 136.46 186.12 136.46 174.218 136.46C 160.499 136.425 151.862 128.413 149.304 111.753C 144.151 111.753 139.003 111.753 133.85 111.753C 126.729 109.323 122.929 102.515 121.87 92.0854C 122.335 79.5734 127.28 71.0934 140.198 69.7724C 143.835 69.7724 147.468 69.7724 151.1 69.7724C 151.1 72.4564 151.1 75.1434 151.1 77.8274C 148.147 77.8274 145.19 77.8274 142.233 77.8274C 135.171 78.3824 129.89 81.6594 129.538 92.4404C 130.569 100.784 133.862 104.143 137.444 104.8C 143.714 104.8 149.987 104.8 156.257 104.8C 157.034 120.796 163.776 129.655 179.249 128.065C 189.808 128.065 200.362 128.065 210.917 128.065C 218.89 127.78 222.71 131.022 222.374 137.776C 222.534 144.257 222.69 150.733 222.85 157.21" style="stroke:none; fill-rule:evenodd; fill:#000000"/>
    <path d="M 222.85 157.21C 220.132 157.21 217.409 157.21 214.682 157.21C 214.682 151.69 214.682 146.171 214.682 140.655C 214.663 137.011 211.55 136.257 209.913 136.46C 198.015 136.46 186.12 136.46 174.218 136.46C 160.499 136.425 151.862 128.413 149.304 111.753C 144.151 111.753 139.003 111.753 133.85 111.753C 126.729 109.323 122.929 102.515 121.87 92.0854C 122.335 79.5734 127.28 71.0934 140.198 69.7724C 143.835 69.7724 147.468 69.7724 151.1 69.7724C 151.1 72.4564 151.1 75.1434 151.1 77.8274C 148.147 77.8274 145.19 77.8274 142.233 77.8274C 135.171 78.3824 129.89 81.6594 129.538 92.4404C 130.569 100.784 133.862 104.143 137.444 104.8C 143.714 104.8 149.987 104.8 156.257 104.8C 157.034 120.796 163.776 129.655 179.249 128.065C 189.808 128.065 200.362 128.065 210.917 128.065C 218.89 127.78 222.71 131.022 222.374 137.776C 222.534 144.257 222.69 150.733 222.85 157.21z" style="stroke:#000000; stroke-width:0.216; fill:none"/>
    <path d="M 232.866 157.116C 230.272 157.116 227.679 157.116 225.081 157.116C 225.081 148.749 225.081 140.386 225.081 132.018C 224.261 121.132 217.651 117.315 207.8 117.464C 194.518 117.464 181.229 117.464 167.94 117.464C 174.003 112.151 180.061 106.839 186.12 101.526C 192.854 96.8544 192.585 87.6324 186.12 86.0934C 180.647 86.0934 175.171 86.0934 169.694 86.0934C 169.694 83.2884 169.694 80.4874 169.694 77.6864C 174.167 77.6864 178.643 77.6864 183.112 77.6864C 199.862 80.8584 200.542 94.9174 194.643 103.53C 192.097 105.667 190.55 107.175 187.999 109.308C 195.147 109.308 202.288 109.308 209.432 109.308C 221.604 109.909 232.241 117.561 232.866 132.643C 232.866 140.804 232.866 148.96 232.866 157.116" style="stroke:none; fill-rule:evenodd; fill:#000000"/>
    <path d="M 232.866 157.116C 230.272 157.116 227.679 157.116 225.081 157.116C 225.081 148.749 225.081 140.386 225.081 132.018C 224.261 121.132 217.651 117.315 207.8 117.464C 194.518 117.464 181.229 117.464 167.94 117.464C 174.003 112.151 180.061 106.839 186.12 101.526C 192.854 96.8544 192.585 87.6324 186.12 86.0934C 180.647 86.0934 175.171 86.0934 169.694 86.0934C 169.694 83.2884 169.694 80.4874 169.694 77.6864C 174.167 77.6864 178.643 77.6864 183.112 77.6864C 199.862 80.8584 200.542 94.9174 194.643 103.53C 192.097 105.667 190.55 107.175 187.999 109.308C 195.147 109.308 202.288 109.308 209.432 109.308C 221.604 109.909 232.241 117.561 232.866 132.643C 232.866 140.804 232.866 148.96 232.866 157.116z" style="stroke:#000000; stroke-width:0.216; fill:none"/>
    <path d="M 29.6204 266.62L 2.62042 266.62" style="stroke:#000000; stroke-width:0.5; fill:none"/>
    <path d="M 38.6204 275.62L 38.6204 302.62" style="stroke:#000000; stroke-width:0.5; fill:none"/>
    <path d="M 29.6204 38.6204L 2.62042 38.6204" style="stroke:#000000; stroke-width:0.5; fill:none"/>
    <path d="M 38.6204 29.6204L 38.6204 2.62042" style="stroke:#000000; stroke-width:0.5; fill:none"/>
    <path d="M 275.62 38.6204L 302.62 38.6204" style="stroke:#000000; stroke-width:0.5; fill:none"/>
    <path d="M 266.62 29.6204L 266.62 2.62042" style="stroke:#000000; stroke-width:0.5; fill:none"/>
    <path d="M 275.62 266.62L 302.62 266.62" style="stroke:#000000; stroke-width:0.5; fill:none"/>
    <path d="M 266.62 275.62L 266.62 302.62" style="stroke:#000000; stroke-width:0.5; fill:none"/>
  </g>
</svg>

<svg viewBox="0 0 305.24 305.24"><g transform="matrix(1.35328 0 0 1.35328-53.21-52.19)"><g fill-rule="evenodd"><path d="m155.55 40.23c61.863 0 112.32 50.45 112.32 112.32 0 61.867-50.46 112.32-112.32 112.32-61.867 0-112.32-50.45-112.32-112.32 0-61.868 50.45-112.32 112.32-112.32m58.34 184.44l-130.47-130.47c-12.945 15.969-20.723 36.28-20.723 58.35 0 51.14 41.707 92.84 92.85 92.84 22.07 0 42.38-7.777 58.34-20.723m-116.69-144.25l130.48 130.47c12.945-15.962 20.718-36.27 20.718-58.34 0-51.14-41.707-92.85-92.84-92.85-22.08 0-42.39 7.773-58.35 20.723" fill="#d90000"/><path d="m147.61 162.83h-72.15v26.03h98.33l-26.18-26.03"/></g><path d="m147.61 162.83h-72.15v26.03h98.33l-26.18-26.03z" fill="none" stroke="#000" stroke-width=".216"/><path d="m182.8 163.01l23.668 24.332h2.855v-24.364l-26.523.032" fill-rule="evenodd"/><path d="m182.8 163.01l23.668 24.332h2.855v-24.364l-26.523.032z" fill="none" stroke="#000" stroke-width=".216"/><path d="m212.57 187.41h10.176v-24.453h-10.176v24.453" fill-rule="evenodd"/><path d="m212.57 187.41h10.176v-24.453h-10.176v24.453z" fill="none" stroke="#000" stroke-width=".216"/><path d="m226.24 187.41h6.727v-24.453h-6.727v24.453" fill-rule="evenodd"/><path d="m226.24 187.41h6.727v-24.453h-6.727v24.453z" fill="none" stroke="#000" stroke-width=".216"/><path d="m222.85 157.21c-2.718 0-5.441 0-8.168 0 0-5.52 0-11.04 0-16.555-.019-3.644-3.132-4.398-4.769-4.195-11.898 0-23.793 0-35.695 0-13.719-.035-22.356-8.05-24.914-24.707-5.153 0-10.301 0-15.454 0-7.121-2.43-10.921-9.238-11.98-19.668.465-12.512 5.41-20.992 18.328-22.313 3.637 0 7.27 0 10.902 0 0 2.684 0 5.371 0 8.05-2.953 0-5.91 0-8.867 0-7.06.555-12.343 3.832-12.695 14.613 1.031 8.344 4.324 11.703 7.906 12.36 6.27 0 12.543 0 18.813 0 .777 15.996 7.519 24.855 22.992 23.265 10.559 0 21.11 0 31.668 0 7.973-.285 11.793 2.957 11.457 9.711.16 6.481.316 12.957.476 19.434" fill-rule="evenodd"/><path d="m222.85 157.21c-2.718 0-5.441 0-8.168 0 0-5.52 0-11.04 0-16.555-.019-3.644-3.132-4.398-4.769-4.195-11.898 0-23.793 0-35.695 0-13.719-.035-22.356-8.05-24.914-24.707-5.153 0-10.301 0-15.454 0-7.121-2.43-10.921-9.238-11.98-19.668.465-12.512 5.41-20.992 18.328-22.313 3.637 0 7.27 0 10.902 0 0 2.684 0 5.371 0 8.05-2.953 0-5.91 0-8.867 0-7.06.555-12.343 3.832-12.695 14.613 1.031 8.344 4.324 11.703 7.906 12.36 6.27 0 12.543 0 18.813 0 .777 15.996 7.519 24.855 22.992 23.265 10.559 0 21.11 0 31.668 0 7.973-.285 11.793 2.957 11.457 9.711.16 6.481.316 12.957.476 19.434z" fill="none" stroke="#000" stroke-width=".216"/><path d="m232.87 157.12c-2.594 0-5.187 0-7.785 0 0-8.367 0-16.73 0-25.1-.82-10.886-7.43-14.703-17.281-14.554-13.282 0-26.571 0-39.86 0 6.06-5.313 12.12-10.625 18.18-15.938 6.734-4.672 6.465-13.894 0-15.433-5.473 0-10.949 0-16.426 0 0-2.805 0-5.606 0-8.407 4.473 0 8.949 0 13.418 0 16.75 3.172 17.43 17.231 11.531 25.844-2.546 2.137-4.093 3.645-6.644 5.778 7.148 0 14.289 0 21.433 0 12.172.601 22.809 8.253 23.434 23.335 0 8.161 0 16.317 0 24.473" fill-rule="evenodd"/><path d="m232.87 157.12c-2.594 0-5.187 0-7.785 0 0-8.367 0-16.73 0-25.1-.82-10.886-7.43-14.703-17.281-14.554-13.282 0-26.571 0-39.86 0 6.06-5.313 12.12-10.625 18.18-15.938 6.734-4.672 6.465-13.894 0-15.433-5.473 0-10.949 0-16.426 0 0-2.805 0-5.606 0-8.407 4.473 0 8.949 0 13.418 0 16.75 3.172 17.43 17.231 11.531 25.844-2.546 2.137-4.093 3.645-6.644 5.778 7.148 0 14.289 0 21.433 0 12.172.601 22.809 8.253 23.434 23.335 0 8.161 0 16.317 0 24.473z" fill="none" stroke="#000" stroke-width=".216"/></g></svg>
